X:4
T:Heavy the beat of the weary waves
Z:Jack Campin, http://www.campin.me.uk/
F:Jack Campin's Nine-Note Tunebook
% last edit 03-02-2013
S:one of my old notebooks, no attribution
N:lament for a drowned man, from Mull
M:4/4
L:1/4
Q:1/4=100
K:GMin
G2 FD|B2  cA|B>c d2|dc  cB|B>c d>d|d (3c/B/A/ GF|
G2 FA|B>d cA|G>A d2|z>A d2|z2  d2-|d (3c/B/A/ GF|G4|]

